!!!COM:	la Rue, Pierre de
!!!CDT:	~1452///-1518/11/20
!!!OPR:	Missa de septem doloribus
!!!ONM:	3
!!!OTL:	Credo
!!!AGN:	Mass; Credo
!!!SCT:	Rue1014c
!!!SCA:	Rue1014c
!!!voices-OPR:	5
!!!voices:	5
**kern	**kern	**kern	**kern	**kern
*staff5	*staff4	*staff3	*staff2	*staff1
*Ivox	*Ivox	*Ivox	*Ivox	*Ivox
*I"Bassus	*I"Tenor	*I"Tenor	*I"Contra	*I"Discantus
*I'B	*I'T	*I'T	*I'C	*I'D
*>[A,B]	*>[A,B]	*>[A,B]	*>[A,B]	*>[A,B]
*>A	*>A	*>A	*>A	*>A
*clefF4	*clefGv2	*clefGv2	*clefGv2	*clefG2
*k[]	*k[]	*k[]	*k[]	*k[]
*M2/1	*M2/1	*M2/1	*M2/1	*M2/1
*met(C2)	*met(C2)	*met(C2)	*met(C2)	*met(C2)
=1-	=1-	=1-	=1-	=1-
!!section: Patrem omnipotentem
!!!OMD: Patrem omnipotentem
0D	0r	0r	0r	0r
=2.	=2.	=2.	=2.	=2.
0F	0A	0r	0r	0r
=3	=3	=3	=3	=3
1E	0c	0r	0r	0r
1C	.	.	.	.
=4.	=4.	=4.	=4.	=4.
1D	1B	0r	0r	0r
1BB	1G	.	.	.
=5	=5	=5	=5	=5
0AA	1A	0r	0r	0r
.	1F	.	.	.
=6.	=6.	=6.	=6.	=6.
2r	0E	0r	0r	0r
2AA/	.	.	.	.
2AA/	.	.	.	.
[2AA/	.	.	.	.
=7	=7	=7	=7	=7
2AA/]	2r	0r	0r	0r
2.C/	2E/	.	.	.
.	2E/	.	.	.
4D\	.	.	.	.
4E\	[2E/	.	.	.
4F\	.	.	.	.
=8.	=8.	=8.	=8.	=8.
1.G	2E/]	0r	0r	0r
.	2.G/	.	.	.
.	4A/	.	.	.
2E\	4B\	.	.	.
.	4c\	.	.	.
=9	=9	=9	=9	=9
4F\	2d\	0r	0r	0r
4E\	.	.	.	.
4D\	1c	.	.	.
4C/	.	.	.	.
1D	.	.	.	.
.	2B\	.	.	.
=10.	=10.	=10.	=10.	=10.
1C	2c\	0r	0r	0r
.	2G/	.	.	.
2AA/	2c\	.	.	.
[2BB/	[2d\	.	.	.
=11	=11	=11	=11	=11
4BB/]	4d\]	0r	0d	0r
4AA/	4c\	.	.	.
4GG/	4B\	.	.	.
4FF/	4A/	.	.	.
1GG	1B	.	.	.
=12.	=12.	=12.	=12.	=12.
0FF	[0A	0r	1.f	0a
.	.	.	2f\	.
=13	=13	=13	=13	=13
0r	0A]	0r	1e	1.cc
.	.	.	1c	.
.	.	.	.	2cc\
=14.	=14.	=14.	=14.	=14.
0r	0r	0r	1d	1b
.	.	.	1B	1g
=15	=15	=15	=15	=15
0r	0r	0r	1A	1a
.	.	.	2r	1f
.	.	.	[2d\	.
=16.	=16.	=16.	=16.	=16.
0r	0r	0r	2d\]	1e
.	.	.	2c\	.
.	.	.	2d\	2r
.	.	.	4c\	[2a/
.	.	.	4B\	.
=17	=17	=17	=17	=17
0r	0r	0r	2A/	4a/]
.	.	.	.	4g/
.	.	.	1c	2g/
.	.	.	.	2a/
.	.	.	4B\	4g/
.	.	.	4A/	4f/
=18.	=18.	=18.	=18.	=18.
0r	0r	0r	2.G/	2e/
.	.	.	.	1g
.	.	.	4A/	.
.	.	.	2B\	.
.	.	.	[2c\	4f/
.	.	.	.	4e/
=19	=19	=19	=19	=19
0r	1G	0r	2c\]	1d
.	.	.	2B\	.
.	2A/	.	2c\	1c
.	[2c\	.	[2e\	.
=20.	=20.	=20.	=20.	=20.
0r	2c\]	0r	2e\]	1.g
.	2B\	.	2d\	.
.	2c\	.	2e\	.
.	4B\	.	4d\	2g/
.	4A/	.	4c\	.
=21	=21	=21	=21	=21
0r	1G	0r	1B	2g/
.	.	.	.	2g/
.	2r	.	1c	2.e/
.	[2c\	.	.	.
.	.	.	.	4f/
=22.	=22.	=22.	=22.	=22.
0r	2c\]	0r	0r	2g/
.	4B\	.	.	1a
.	4A/	.	.	.
.	2B\	.	.	.
.	2B\	.	.	2g#i/
=23	=23	=23	=23	=23
0r	0A	0r	2r	1a
.	.	.	1c	.
.	.	.	.	2r
.	.	.	4B\	[2f/
.	.	.	4A/	.
=24.	=24.	=24.	=24.	=24.
0r	1r	0r	4B\	2f/]
.	.	.	4A/	.
.	.	.	1d	4e/
.	.	.	.	4d/
.	1A	.	.	2e/
.	.	.	2c#i\	2e/
=25	=25	=25	=25	=25
2r	2.B-i\	0r	0d	1d
1BB-	.	.	.	.
.	4A/	.	.	.
.	2F/	.	.	1r
4AA/	[2G/	.	.	.
4GG/	.	.	.	.
=26.	=26.	=26.	=26.	=26.
2AA/	2G/]	0r	1r	1a
2AA/	2F#i/	.	.	.
2.GG/	[1G	.	[1d	[1b
4AA/	.	.	.	.
=27	=27	=27	=27	=27
2BB/	1G]	0r	2d\]	2b\]
2C/	.	.	4c\	4a/
.	.	.	4B\	4g/
1AA	1C	.	2c\	2a/
.	.	.	2A/	2cc\
=28.	=28.	=28.	=28.	=28.
2GG/	0r	0r	2B\	2b\
2FF/	.	.	2.d\	1a
1GG	.	.	.	.
.	.	.	4c\	.
.	.	.	2B\	[2g/
=29	=29	=29	=29	=29
2r	0r	0r	1A	4g/]
.	.	.	.	4f/
2D\	.	.	.	2f/
2E\	.	.	2G/	2g/
2F\	.	.	[2d\	4f/
.	.	.	.	4e/
=30.	=30.	=30.	=30.	=30.
2.G\	1r	0r	4d\]	2d/
.	.	.	4c\	.
.	.	.	4B\	2.g/
4F\	.	.	4A/	.
4E\	2r	.	1G	.
4D\	.	.	.	4f/
[2C/	[2c\	.	.	4e/
.	.	.	.	4d/
=31	=31	=31	=31	=31
2C/]	4c\]	0r	2r	2c/
.	4B\	.	.	.
2C/	4A/	.	2c\	2e/
.	4G/	.	.	.
2D\	2F/	.	2A/	2f/
2C/	[2G/	.	[2c\	[2e/
=32.	=32.	=32.	=32.	=32.
1D	4G/]	0r	4c\]	4e/]
.	4F/	.	4B\	4d/
.	4E/	.	4A/	1d
.	4D/	.	4G/	.
1AA	1E	.	1A	.
.	.	.	.	2c#i/
=33	=33	=33	=33	=33
2r	1D	[0A	2F/	0d
2D\	.	.	2f\	.
2D\	1r	.	2f\	.
2D\	.	.	2f\	.
=34.	=34.	=34.	=34.	=34.
2C/	0r	0A]	2e\	0r
1D	.	.	1f	.
4C/	.	.	4e\	.
4BB/	.	.	4d\	.
=35	=35	=35	=35	=35
0AA	2r	[0A	0c	1a
.	2E/	.	.	.
.	2F/	.	.	2a/
.	2E/	.	.	2a/
=36.	=36.	=36.	=36.	=36.
0r	2C/	0A]	0r	2e/
.	1F	.	.	1a
.	4E/	.	.	4g/
.	4D/	.	.	4f/
=37	=37	=37	=37	=37
2r	0C	[0c	2r	0e
2AA/	.	.	2A/	.
2AA/	.	.	2A/	.
2AA/	.	.	2A/	.
=38.	=38.	=38.	=38.	=38.
2AA/	0r	0c]	2c\	1r
2.C/	.	.	2.e\	.
.	.	.	.	2r
4BB/	.	.	4d\	.
4AA/	.	.	4c\	2a/
4GG/	.	.	4B\	.
=39	=39	=39	=39	=39
0FF	2r	[0c	2A/	2a/
.	1C	.	2.c\	2a/
.	.	.	.	2a/
.	.	.	4B\	.
.	[2C/	.	4A/	[2cc\
.	.	.	4G/	.
=40.	=40.	=40.	=40.	=40.
1FF	2C/]	0c]	2.F/	4cc\]
.	.	.	.	4b\
.	2.F/	.	.	4a/
.	.	.	4G/	4g/
1FF	.	.	1A	2.f/
.	4E/	.	.	.
.	2C/	.	.	.
.	.	.	.	4e/
=41	=41	=41	=41	=41
[0GG	2G/	[0B	2r	2d/
.	2D/	.	2d\	2g/
.	2.G/	.	2B\	2d/
.	.	.	2d\	[2g/
.	4F/	.	.	.
=42.	=42.	=42.	=42.	=42.
0GG]	2E/	0B]	2.G/	2g/]
.	2D/	.	.	4f/
.	.	.	4A/	4e/
.	1G	.	4B\	2d/
.	.	.	4c\	.
.	.	.	4d\	4e/
.	.	.	4B\	4d/
=43	=43	=43	=43	=43
2r	1C	[0G	0c	[0e
2C/	.	.	.	.
2C/	2r	.	.	.
[2C/	2C/	.	.	.
=44.	=44.	=44.	=44.	=44.
4C/]	2C/	0G_	0r	0e]
4D\	.	.	.	.
4E\	2.C/	.	.	.
4F\	.	.	.	.
2G\	.	.	.	.
.	4D/	.	.	.
[2C/	4E/	.	.	.
.	4C/	.	.	.
=45	=45	=45	=45	=45
2C/]	1D	0G]	1r	0r
2BB/	.	.	.	.
2C/	1C	.	2r	.
2E\	.	.	2e\	.
=46.	=46.	=46.	=46.	=46.
2D\	2r	[0A	2f\	0r
2AA/	2E/	.	2.e\	.
2D\	2F/	.	.	.
.	.	.	4d\	.
2D\	4E/	.	[2d\	.
.	4D/	.	.	.
=47	=47	=47	=47	=47
1AA	1E	0A]	2d\]	0r
.	.	.	2c#i\	.
1r	1D	.	1d	.
=48.	=48.	=48.	=48.	=48.
2r	1.A	[0F	2r	2r
2D\	.	.	2d\	1a
2D\	.	.	2d\	.
2D\	2A/	.	2d\	[2a/
=49	=49	=49	=49	=49
0D	0A	0F]	1d	2a/]
.	.	.	.	2a/
.	.	.	1d	2a/
.	.	.	.	2a/
=50.	=50.	=50.	=50.	=50.
1AA	1A	[0E	[0e	2cc\
.	.	.	.	4b\
.	.	.	.	4a/
2.C/	2E/	.	.	2.g/
.	2G/	.	.	.
4BB/	.	.	.	4a/
=51	=51	=51	=51	=51
2AA/	2A/	0E_	0e]	2cc\
2GG/	2B\	.	.	1b
1AA	2.c\	.	.	.
.	.	.	.	[2a/
.	4A/	.	.	.
=52.	=52.	=52.	=52.	=52.
1E	1B	0E]	1r	4a/]
.	.	.	.	4g#i/
.	.	.	.	2g#i/
1AA	1A	.	2r	2a/
.	.	.	2e\	2cc\
=53	=53	=53	=53	=53
0r	0r	0r	2.e\	2.cc\
.	.	.	4d\	4b\
.	.	.	2c\	2a/
.	.	.	2B\	2g/
=54.	=54.	=54.	=54.	=54.
0r	0r	0r	2A/	2f/
.	.	.	2G/	1e
.	.	.	1F	.
.	.	.	.	2d/
=55	=55	=55	=55	=55
2r	0r	0r	2E/	2e/
2C/	.	.	2.e\	2g/
1D	.	.	.	2.f/
.	.	.	4d\	.
.	.	.	2d\	.
.	.	.	.	8e/L
.	.	.	.	8d/J
=56.	=56.	=56.	=56.	=56.
2AA/	2r	0A	0e	0c
2A\	2c\	.	.	.
2.A\	2.c\	.	.	.
4G\	4B\	.	.	.
=57	=57	=57	=57	=57
2F\	2A/	1A	0r	0r
2E\	2G/	.	.	.
2D\	2F/	1A	.	.
[2C/	[2E/	.	.	.
=58.	=58.	=58.	=58.	=58.
2C/]	2E/]	1G	0r	0r
4BB/	4D/	.	.	.
4AA/	4C/	.	.	.
1BB	1D	1G	.	.
=59	=59	=59	=59	=59
0AA	0E	2A/	2r	2r
.	.	2c\	2e\	2a/
.	.	2.c\	2.e\	2.a/
.	.	4B\	4d\	4g/
=60.	=60.	=60.	=60.	=60.
0r	0r	2A/	2c\	2f/
.	.	2G/	2B\	2e/
.	.	2F/	2A/	2d/
.	.	2E/	2G/	[2e/
=61	=61	=61	=61	=61
1r	1r	1F	1A	2e/]
.	.	.	.	2d/
2r	2r	1E	2B\	2e/
2AA/	2A/	.	2E/	2cc\
=62.	=62.	=62.	=62.	=62.
2AA/	1A	2r	0e	2.cc\
2AA/	.	2c\	.	.
.	.	.	.	4b\
1C	1E	2.c\	.	2a/
.	.	.	.	2g/
.	.	4B\	.	.
=63	=63	=63	=63	=63
2D\	2F/	2A/	0r	2f/
2E\	2G/	2G/	.	2e/
2F\	1A	2F/	.	2d/
2G\	.	2E/	.	[2e/
=64.	=64.	=64.	=64.	=64.
1A	1D	2F/	0r	4e/]
.	.	.	.	4d/
.	.	4E/	.	1d
.	.	4D/	.	.
1AA	1A	1E	.	.
.	.	.	.	2c#i/
=65	=65	=65	=65	=65
2r	2.F/	0D	0r	0d
2A\	.	.	.	.
.	4E/	.	.	.
2A\	1D	.	.	.
[2A\	.	.	.	.
=66.	=66.	=66.	=66.	=66.
4A\]	2r	0r	0r	0r
4G\	.	.	.	.
4F\	2d\	.	.	.
4E\	.	.	.	.
1D	2d\	.	.	.
.	[2d\	.	.	.
=67	=67	=67	=67	=67
2r	4d\]	0r	0r	0r
.	4c\	.	.	.
1G	4B\	.	.	.
.	4A/	.	.	.
.	1G	.	.	.
[2G\	.	.	.	.
=68.	=68.	=68.	=68.	=68.
4G\]	2r	0r	0r	0r
4F\	.	.	.	.
4E\	2c\	.	.	.
4D\	.	.	.	.
2C/	2c\	.	.	.
2C/	[2c\	.	.	.
=69	=69	=69	=69	=69
1F	2c\]	0r	0r	0r
.	4B\	.	.	.
.	4A/	.	.	.
4E\	4G/	.	.	.
4D\	4F/	.	.	.
4E\	4G/	.	.	.
4F\	4A/	.	.	.
=70.	=70.	=70.	=70.	=70.
2G\	2B\	0r	1r	0r
2E\	1c	.	.	.
1D	.	.	1d	.
.	2B\	.	.	.
=71	=71	=71	=71	=71
[0C	[0c	1r	1e	1g
.	.	1G	2e\	2g/
.	.	.	[2e\	[2g/
=72.	=72.	=72.	=72.	=72.
0C]	0c]	2G/	2e\]	2g/]
.	.	1G	2e\	2g/
.	.	.	4c\	4e/
.	.	.	4B\	4d/
.	.	2G/	4c\	4e/
.	.	.	4d\	4f/
=73	=73	=73	=73	=73
0r	0r	0E	2e\	2g/
.	.	.	2c\	1a
.	.	.	1B	.
.	.	.	.	2g#i/
=74.	=74.	=74.	=74.	=74.
2r	2r	2F/	0A	0a
1D	1F	4A/	.	.
.	.	4G/	.	.
.	.	4A/	.	.
.	.	4B\	.	.
2C/	2E/	2c\	.	.
=75	=75	=75	=75	=75
2D\	2D/	2B\	0r	1r
2AA/	2C/	1A	.	.
1BB	1D	.	.	1dd
.	.	2G#i/	.	.
=76.	=76.	=76.	=76.	=76.
[0AA	1E	0A	1e	2cc\
.	.	.	.	1a
.	2r	.	2f\	.
.	[2E/	.	2e\	[2cc\
=77	=77	=77	=77	=77
1AA]	2E/]	1r	1c	4cc\]
.	.	.	.	4b\
.	2E/	.	.	4a/
.	.	.	.	4g/
2r	2D/	2r	2d\	2f/
2AA/	2E/	[2A/	2c\	2e/
=78.	=78.	=78.	=78.	=78.
2D\	2F/	2A/]	2d\	2r
2D\	2D/	2F/	4A/	2f/
.	.	.	4B\	.
2C/	2E/	2G/	2c\	2e/
[2D\	2F/	[2F/	[2A/	2d/
=79	=79	=79	=79	=79
2D\]	1D	2F/]	2A/]	2f/
4C/	.	4E/	2.d\	2g/
4BB/	.	4D/	.	.
1AA	1r	1E	.	1a
.	.	.	4c#i\	.
.	.	.	2c#i\	.
=80.	=80.	=80.	=80.	=80.
0r	2r	0D	[0d	[0f
.	1A	.	.	.
.	[2A/	.	.	.
=81	=81	=81	=81	=81
0D	2A/]	0r	0d]	0f]
.	2B\	.	.	.
.	2A/	.	.	.
.	[2d\	.	.	.
=82.	=82.	=82.	=82.	=82.
1D	2d\]	0r	1r	0r
.	4c\	.	.	.
.	4B\	.	.	.
1D	1A	.	1d	.
=83	=83	=83	=83	=83
2.E\	2G/	0r	2B\	2r
.	1c	.	2e\	1g
4F\	.	.	.	.
1G	.	.	2e\	.
.	2B\	.	2d\	[2g/
=84.	=84.	=84.	=84.	=84.
[0C	1c	0r	[0e	2g/]
.	.	.	.	2a/
.	2c\	.	.	2g/
.	[2A/	.	.	[2cc\
=85	=85	=85	=85	=85
0C]	2A/]	0r	0e]	2cc\]
.	4G/	.	.	4b\
.	4F/	.	.	4a/
.	1E	.	.	1g
=86.	=86.	=86.	=86.	=86.
0D	0D	2A/	0r	[0f
.	.	2B\	.	.
.	.	2A/	.	.
.	.	[2d\	.	.
=87	=87	=87	=87	=87
1D	0r	2d\]	1r	0f]
.	.	4c\	.	.
.	.	4B\	.	.
1D	.	1A	1d	.
=88.	=88.	=88.	=88.	=88.
2.E\	0r	2G/	2B\	2r
.	.	1c	2e\	1g
4F\	.	.	.	.
1G	.	.	2e\	.
.	.	2B\	2d\	[2g/
=89	=89	=89	=89	=89
0C	0r	0c	2e\	2g/]
.	.	.	1c	2a/
.	.	.	.	2.g/
.	.	.	4B\	.
.	.	.	4A/	4a/
=90.	=90.	=90.	=90.	=90.
1r	0r	2d\	2G/	2b\
.	.	2c\	2A/	1cc
1GG	.	1d	1G	.
.	.	.	.	2b\
=91	=91	=91	=91	=91
2AA/	2r	0c	0E	1cc
2.C/	2G/	.	.	.
.	2A/	.	.	1r
4BB/	.	.	.	.
[2AA/	[2c\	.	.	.
=92.	=92.	=92.	=92.	=92.
2AA/]	2c\]	1r	0r	0r
4GG/	4B\	.	.	.
4FF/	4A/	.	.	.
2GG/	2B\	2r	.	.
2FF/	[2A/	2c\	.	.
=93	=93	=93	=93	=93
1AA	4A/]	1c	0r	1r
.	4G/	.	.	.
.	1F	.	.	.
1GG	.	1B	.	1g
.	2E/	.	.	.
=94.	=94.	=94.	=94.	=94.
0FF	0F	0A	2r	2a/
.	.	.	2c\	2.cc\
.	.	.	1c	.
.	.	.	.	4b\
.	.	.	.	[2a/
=95	=95	=95	=95	=95
0r	1D	1F	1d	2a/]
.	.	.	.	4g/
.	.	.	.	4f/
.	[1C	2E/	2e\	2g/
.	.	[2A/	2e\	4c/
.	.	.	.	4d/
=96.	=96.	=96.	=96.	=96.
1r	1C]	2A/]	2c\	2e/
.	.	4G/	4B\	1f
.	.	4F/	4A/	.
1C	2r	1G	1G	.
.	2c\	.	.	2e/
=97	=97	=97	=97	=97
2D\	2B\	0F	0d	0f
2.F\	2.A/	.	.	.
4E\	4G/	.	.	.
[2D\	[2F/	.	.	.
=98.	=98.	=98.	=98.	=98.
2D\]	2F/]	1r	1d	0r
4C/	4E/	.	.	.
4BB/	4D/	.	.	.
2AA/	4C/	2r	1e	.
.	4D/	.	.	.
[2C/	4E/	2c\	.	.
.	4F/	.	.	.
=99	=99	=99	=99	=99
4C/]	2G/	1c	0r	1r
4BB/	.	.	.	.
2AA/	1F	.	.	.
1GG	.	1B	.	1g
.	2E/	.	.	.
=100.	=100.	=100.	=100.	=100.
0FF	0F	0A	2r	2a/
.	.	.	2c\	2.cc\
.	.	.	1c	.
.	.	.	.	4b\
.	.	.	.	[2a/
=101	=101	=101	=101	=101
1r	1D	1F	1d	2a/]
.	.	.	.	4g/
.	.	.	.	4f/
2r	1C	1E	2.e\	2g/
2AA/	.	.	.	2c/
.	.	.	4d\	.
=102.	=102.	=102.	=102.	=102.
2GG/	0r	2r	2B\	2d/
2AA/	.	2E/	2c\	2c/
2BB/	.	2D/	2B\	2d/
2C/	.	[2G/	2e\	2e/
=103	=103	=103	=103	=103
2AA/	0r	4G/]	2c\	1f
.	.	4F/	.	.
2BB/	.	1F	1d	.
1GG	.	.	.	1g
.	.	2E/	4c\	.
.	.	.	4B\	.
=104.	=104.	=104.	=104.	=104.
2FF/	2r	2F/	1A	[0a
1F	2D/	1A	.	.
.	2F/	.	1r	.
2E\	2G/	2G/	.	.
=105	=105	=105	=105	=105
2D\	2.A/	2F/	1r	0a]
2C/	.	2E/	.	.
.	4G/	.	.	.
1D	4F/	1F	1d	.
.	4G/	.	.	.
.	4A/	.	.	.
.	4B\	.	.	.
=106.	=106.	=106.	=106.	=106.
[0AA	2c\	0E	1e	2r
.	2.A/	.	.	1cc
.	.	.	1e	.
.	4G/	.	.	.
.	2E/	.	.	2b\
=107	=107	=107	=107	=107
0AA]	2F/	[0A	2.c\	2a/
.	4E/	.	.	4g/
.	4D/	.	4d\	4f/
.	2C/	.	2e\	2e/
.	2F/	.	[2f\	2d/
=108.	=108.	=108.	=108.	=108.
1r	1D	0A]	4f\]	1f
.	.	.	4e\	.
.	.	.	1d	.
1AA	1E	.	.	1e
.	.	.	2c#i\	.
=109	=109	=109	=109	=109
2.D\	1F	[0Al	2d\	2d/
.	.	.	1f	1a
4E\	.	.	.	.
2F\	2D/	.	.	.
2C/	2E/	.	2e\	2g/
=110.	=110.	=110.	=110.	=110.
1D	1F	0A_	1d	2f/
.	.	.	.	4e/
.	.	.	.	4d/
1AA	2E/	.	[1e	2.c/
.	[2A/	.	.	.
.	.	.	.	4d/
=111	=111	=111	=111	=111
[0AAl	2A/]	0A_	2e\]	1e
.	4G/	.	2c\	.
.	4F/	.	.	.
.	[1El	.	[1cl	1e
=112.	=112.	=112.	=112.	=112.
0AA]	0E]	0A]	0c]	0el
!!LO:LB:i:g=z
=113||	=113||	=113||	=113||	=113||
*>B	*>B	*>B	*>B	*>B
*clefF4	*clefGv2	*clefGv2	*clefGv2	*clefG2
*k[]	*k[]	*k[]	*k[]	*k[]
*M2/1	*M2/1	*M2/1	*M2/1	*M2/1
*met(C2)	*met(C2)	*met(C2)	*met(C2)	*met(C2)
!!section: Crucifixus
!!!OMD: Crucifixus
1AA	0r	0A	1e	0r
1D	.	.	1f	.
=114.	=114.	=114.	=114.	=114.
1C	1r	1A	1e	1r
1AA	1E	1A	1c	1e
=115	=115	=115	=115	=115
0r	1F	[0c	0r	1a
.	1E	.	.	1g
=116.	=116.	=116.	=116.	=116.
2r	1C	0c]	0r	0e
2AA/	.	.	.	.
2AA/	2r	.	.	.
2AA/	2E/	.	.	.
=117	=117	=117	=117	=117
2.C/	2.E/	1.c	0r	0r
4D\	4F/	.	.	.
2E\	2G/	.	.	.
2F\	2A/	2c\	.	.
=118.	=118.	=118.	=118.	=118.
2G\	2E/	2B\	0r	0r
2.A\	2F/	2A/	.	.
.	1E	1B	.	.
4G#i\	.	.	.	.
2G#i\	.	.	.	.
=119	=119	=119	=119	=119
1A	0r	0A	2r	1r
.	.	.	2A/	.
1AA	.	.	2c\	2r
.	.	.	2c\	2e/
=120.	=120.	=120.	=120.	=120.
0r	0r	0r	2.c\	2e/
.	.	.	.	2e/
.	.	.	4d\	.
.	.	.	[1e	2.g/
.	.	.	.	4a/
=121	=121	=121	=121	=121
0r	0r	0r	2e\]	2b\
.	.	.	2c\	2cc\
.	.	.	4d\	2b\
.	.	.	4c\	.
.	.	.	4B\	[2a/
.	.	.	4A/	.
=122.	=122.	=122.	=122.	=122.
0r	0r	0r	1B	4a/]
.	.	.	.	4g#i/
.	.	.	.	2g#i/
.	.	.	1A	1a
=123	=123	=123	=123	=123
0AA	0E	0A	0e	0cc
=124.	=124.	=124.	=124.	=124.
1AA	1C	1F	1A	1cc
[1GG	[1D	[1G	1B	[1b
=125	=125	=125	=125	=125
1GG]	1D]	1G]	1G	1b]
1GG	1G	1E	1B	1g
=126.	=126.	=126.	=126.	=126.
0D	0F	1F	2A/	1a
.	.	.	1d	.
.	.	1D	.	2a/
.	.	.	4c\	[2f/
.	.	.	4B\	.
=127	=127	=127	=127	=127
1D	1D	1.A	2d\	2f/]
.	.	.	2A/	4e/
.	.	.	.	4d/
[1AA	1C	.	2.c\	2f/
.	.	2G/	.	[2e/
.	.	.	4B\	.
=128.	=128.	=128.	=128.	=128.
1AA]	1r	2F/	1A	2e/]
.	.	4E/	.	2.d/
.	.	4D/	.	.
1AA	1E	1E	1A	.
.	.	.	.	4c#i/
.	.	.	.	2c#i/
=129	=129	=129	=129	=129
0r	2.F/	0D	0r	0d
.	4G/	.	.	.
.	2A/	.	.	.
.	2B\	.	.	.
=130.	=130.	=130.	=130.	=130.
0r	2c\	0r	0r	1r
.	1d	.	.	.
.	.	.	.	1e
.	2c#i\	.	.	.
=131	=131	=131	=131	=131
0r	0d	0r	1r	2.f/
.	.	.	.	4g/
.	.	.	1f	2a/
.	.	.	.	2b\
=132.	=132.	=132.	=132.	=132.
0r	0r	0r	2e\	2cc\
.	.	.	2d\	1dd
.	.	.	1e	.
.	.	.	.	2cc\
=133	=133	=133	=133	=133
0r	0r	0r	2d\	2b\
.	.	.	1f	1a
.	.	.	2e\	2g/
=134.	=134.	=134.	=134.	=134.
1r	0r	0r	2d\	2f/
.	.	.	4c\	4e/
.	.	.	4B\	4d/
1AA	.	.	2c\	1e
.	.	.	2A/	.
=135	=135	=135	=135	=135
1E	0r	0r	2G/	1r
.	.	.	2G/	.
1E	.	.	1c	2r
.	.	.	.	2e/
=136.	=136.	=136.	=136.	=136.
[0E	0r	0r	2B\	1g
.	.	.	1e	.
.	.	.	.	1g
.	.	.	2d\	.
=137	=137	=137	=137	=137
0E]	1r	0r	2c\	1g
.	.	.	4B\	.
.	.	.	4A/	.
.	1G	.	1B	1g
=138.	=138.	=138.	=138.	=138.
2.AA/	1c	0r	0A	0a
4BB/	.	.	.	.
2C/	2c\	.	.	.
2D\	[2A/	.	.	.
=139	=139	=139	=139	=139
2E\	4A/]	0r	0r	0r
.	4G/	.	.	.
2.D\	2F/	.	.	.
.	1E	.	.	.
4C#i/	.	.	.	.
2C#i/	.	.	.	.
=140.	=140.	=140.	=140.	=140.
[0D	2D/	0d	0r	1r
.	2D/	.	.	.
.	2.F/	.	.	2r
.	.	.	.	2d/
.	4G/	.	.	.
=141	=141	=141	=141	=141
0D]	2A/	1d	0r	2.f/
.	2D/	.	.	.
.	.	.	.	4g/
.	2.F/	1d	.	2a/
.	.	.	.	2b\
.	4G/	.	.	.
=142.	=142.	=142.	=142.	=142.
0r	2A/	1c	0r	2cc\
.	4G/	.	.	4b\
.	4F/	.	.	4a/
.	2E/	1c	.	2g/
.	[2F/	.	.	[2a/
=143	=143	=143	=143	=143
0r	4F/]	0c	0r	2a/]
.	4E/	.	.	.
.	4F/	.	.	4g/
.	4G/	.	.	4f/
.	1A	.	.	2e/
.	.	.	.	4f/
.	.	.	.	4e/
=144.	=144.	=144.	=144.	=144.
1D	0D	[0d	1A	1f
1D	.	.	2B-i\	1r
.	.	.	[2A/	.
=145	=145	=145	=145	=145
1D	0r	0d]	2A/]	1a
.	.	.	2F/	.
2GG/	.	.	2G/	2b-i\
2D\	.	.	2A/	[2a/
=146.	=146.	=146.	=146.	=146.
2D\	0r	0r	4F/	2a/]
.	.	.	4G/	.
2E\	.	.	4A/	2g/
.	.	.	4B-i\	.
2.F\	.	.	4A/	4f/
.	.	.	4B-i\	4g/
.	.	.	4c\	4a/
4D\	.	.	4d\	4b-i\
=147	=147	=147	=147	=147
2F\	0r	0r	2c\	2a/
2G\	.	.	2B-i\	2.g/
1D	.	.	1A	.
.	.	.	.	4f#i/
.	.	.	.	2f#i/
=148.	=148.	=148.	=148.	=148.
2GG/	1D	0d	2G/	1g
2GG/	.	.	2G/	.
2GG/	2D/	.	2G/	2r
2GG/	2D/	.	2G/	2g/
=149	=149	=149	=149	=149
1GG	2D/	1d	1G	2g/
.	1G	.	.	2g/
1GG	.	1d	1B	2g/
.	4F/	.	.	2g/
.	4E/	.	.	.
=150.	=150.	=150.	=150.	=150.
1D	2F/	0d	2A/	1a
.	2F/	.	1A	.
1BB	1D	.	.	1b
.	.	.	2G#i/	.
=151	=151	=151	=151	=151
2AA/	0E	0c	0A	0cc
2AA/	.	.	.	.
2AA/	.	.	.	.
2AA/	.	.	.	.
=152.	=152.	=152.	=152.	=152.
2.C/	0r	1A	0r	0r
4D\	.	.	.	.
4E\	.	2.G/	.	.
4F\	.	.	.	.
[2G\	.	.	.	.
.	.	4A/	.	.
=153	=153	=153	=153	=153
4G\]	0r	2B\	1r	0r
4F\	.	.	.	.
2E\	.	1c	.	.
1D	.	.	1f	.
.	.	2B\	.	.
=154.	=154.	=154.	=154.	=154.
0C	1G	0c	2e\	2r
.	.	.	2e\	2g/
.	2G/	.	1c	2g/
.	2G/	.	.	2g/
=155	=155	=155	=155	=155
0r	2E/	0r	1e	2g/
.	2E/	.	.	2g/
.	2F/	.	2d\	2a/
.	2G/	.	2d\	2b\
=156.	=156.	=156.	=156.	=156.
0r	2A/	0r	1c	2cc\
.	4G/	.	.	4b\
.	4F/	.	.	4a/
.	2E/	.	2r	2g/
.	2E/	.	2e\	2g/
=157	=157	=157	=157	=157
0r	2D/	0r	2f\	2a/
.	2E/	.	2e\	2g/
.	2F/	.	2c\	2a/
.	2G/	.	[2e\	4g/
.	.	.	.	4f/
=158.	=158.	=158.	=158.	=158.
0r	2A/	0r	2e\]	4g/
.	.	.	.	4f/
.	2B-i\	.	2.d\	4e/
.	.	.	.	4d/
.	1A	.	.	1e
.	.	.	4c#i\	.
.	.	.	2c#i\	.
=159	=159	=159	=159	=159
0D	1F	0A	0d	1d
.	1F	.	.	[1a
=160.	=160.	=160.	=160.	=160.
1D	1F	1A	1r	1a]
1D	1F	1A	1d	1a
=161	=161	=161	=161	=161
0BB	1D	1G	1d	1b
.	1G	1G	1B	1dd
=162.	=162.	=162.	=162.	=162.
1AA	1C	1A	0e	1cc
2C/	1G	1E	.	2cc\
2D\	.	.	.	[2b\
=163	=163	=163	=163	=163
0E	2E/	2G/	1e	4b\]
.	.	.	.	4a/
.	2F/	2A/	.	1a
.	1G	1B	1e	.
.	.	.	.	2g#i/
=164.	=164.	=164.	=164.	=164.
2r	1F	[0A	1f	[0a
2D\	.	.	.	.
2D\	2D/	.	2f\	.
2C/	2E/	.	[2e\	.
=165	=165	=165	=165	=165
1D	2.F/	0A]	2e\]	0a]
.	.	.	2.d\	.
.	4D/	.	.	.
1AA	1E	.	.	.
.	.	.	4c#i\	.
.	.	.	2c#i\	.
=166.	=166.	=166.	=166.	=166.
2r	1D	0r	0d	0r
2D\	.	.	.	.
2D\	2A/	.	.	.
[2F\	2A/	.	.	.
=167	=167	=167	=167	=167
2F\]	1c	0r	0r	0r
2E\	.	.	.	.
1D	2B\	.	.	.
.	[2A/	.	.	.
=168.	=168.	=168.	=168.	=168.
1F	2A/]	0r	0r	0r
.	1c	.	.	.
2E\	.	.	.	.
2D\	2B\	.	.	.
=169	=169	=169	=169	=169
2.F\	2A/	0r	0r	0r
.	1c	.	.	.
4E\	.	.	.	.
1C	.	.	.	.
.	4B\	.	.	.
.	4A/	.	.	.
=170.	=170.	=170.	=170.	=170.
2r	1G	0r	0r	0r
2C/	.	.	.	.
2D\	2r	.	.	.
2E\	2G/	.	.	.
=171	=171	=171	=171	=171
2F\	2A/	0r	0r	0r
2G\	2B\	.	.	.
2C/	2c\	.	.	.
[2F\	2d\	.	.	.
=172.	=172.	=172.	=172.	=172.
4F\]	2G/	0r	0r	0r
4E\	.	.	.	.
4D\	2.c\	.	.	.
4C/	.	.	.	.
1D	.	.	.	.
.	4B\	.	.	.
.	2B\	.	.	.
=173	=173	=173	=173	=173
[0C	[0c	0r	1G	0r
.	.	.	2A/	.
.	.	.	[2G/	.
=174.	=174.	=174.	=174.	=174.
0C]	0c]	0r	2G/]	1g
.	.	.	1E	.
.	.	.	.	2a/
.	.	.	2G/	[2g/
=175	=175	=175	=175	=175
0r	0r	0r	2A/	2g/]
.	.	.	1c	1e
.	.	.	2B\	2g/
=176.	=176.	=176.	=176.	=176.
0r	0r	0r	2c\	2a/
.	.	.	1A	1cc
.	.	.	4G/	2b\
.	.	.	4F/	.
=177	=177	=177	=177	=177
0r	0r	0r	2E/	2cc\
.	.	.	2F/	2.a/
.	.	.	2D/	.
.	.	.	.	4g/
.	.	.	[2d\	[2f/
=178.	=178.	=178.	=178.	=178.
0r	0r	0r	4d\]	4f/]
.	.	.	4c\	4e/
.	.	.	1c	4d/
.	.	.	.	4c/
.	.	.	.	1d
.	.	.	2B\	.
=179	=179	=179	=179	=179
0C	1G	0c	1c	1e
.	2G/	.	1e	1g
.	[2c\	.	.	.
=180.	=180.	=180.	=180.	=180.
1C	2c\]	1c	1e	1g
.	4B\	.	.	.
.	4A/	.	.	.
1C	1G	1c	1e	1g
=181	=181	=181	=181	=181
1F	2F/	1c	1f	1a
.	2F/	.	.	.
1F	[1A	1c	1f	1a
=182.	=182.	=182.	=182.	=182.
1F	2A/]	1c	1f	1a
.	4G/	.	.	.
.	4F/	.	.	.
1F	2A/	1c	1f	1a
.	2F/	.	.	.
=183	=183	=183	=183	=183
[0C	2c\	0c	0e	0g
.	4B\	.	.	.
.	4A/	.	.	.
.	1G	.	.	.
=184.	=184.	=184.	=184.	=184.
0C]	2.c\	1.G	1e	1g
.	4c\	.	.	.
.	2c\	.	2e\	2g/
.	[2G/	2G/	[2c\	[2e/
=185	=185	=185	=185	=185
0GG	2G/]	1G	2c\]	2e/]
.	4F/	.	4B\	4d/
.	4E/	.	4A/	4c/
.	2D/	1G	2B\	2d/
.	2C/	.	[2c\	2e/
=186.	=186.	=186.	=186.	=186.
1GG	1D	0G	2c\]	1d
.	.	.	2B\	.
[1C	1C	.	1c	2e/
.	.	.	.	2e/
=187	=187	=187	=187	=187
2C/]	2r	1E	0r	2g/
2AA/	2C/	.	.	2.a/
2BB/	2D/	2r	.	.
.	.	.	.	4g/
2C/	2E/	2E/	.	2g/
=188.	=188.	=188.	=188.	=188.
[0FF	2C/	1F	1c	2a/
.	1F	.	.	2a/
.	.	1A	1c	[1cc
.	4E/	.	.	.
.	4D/	.	.	.
=189	=189	=189	=189	=189
0FF]	0C	1.c	1A	2cc\]
.	.	.	.	2b\
.	.	.	1A	2a/
.	.	2B\	.	2g/
=190.	=190.	=190.	=190.	=190.
2r	0r	2A/	1c	2f/
2C/	.	2G/	.	2e/
2D\	.	2F/	2B\	2d/
2C/	.	2E/	[2c\	[2e/
=191	=191	=191	=191	=191
2AA/	0r	2C/	4c\]	2e/]
.	.	.	4B\	.
2BB/	.	2D/	2G/	1d
1AA	.	1E	1A	.
.	.	.	.	2c#i/
=192.	=192.	=192.	=192.	=192.
0BB-	2r	[0D	1F	0d
.	1F	.	.	.
.	.	.	1D	.
.	2F/	.	.	.
=193	=193	=193	=193	=193
1.BB-i	2G/	0D_	2r	2r
.	2F/	.	1d	1f
.	1D	.	.	.
2BB-i/	.	.	2d\	2f/
=194.	=194.	=194.	=194.	=194.
1BB-i	2r	0D]	1.d	2g/
.	1F	.	.	2f/
1BB-i	.	.	.	2d/
.	4E/	.	2d\	[2f/
.	4D/	.	.	.
=195	=195	=195	=195	=195
1FF	1A	1r	2.c\	2f/]
.	.	.	.	4e/
.	.	.	4B\	4d/
1AA	1A	1F	1A	2c/
.	.	.	.	2c/
=196.	=196.	=196.	=196.	=196.
1GG	0B-i	1G	0r	2.e/
.	.	.	.	4f/
1GG	.	1E	.	1g
=197	=197	=197	=197	=197
0FF	0A	0F	1.c	1a
.	.	.	.	2r
.	.	.	2c\	[2a/
=198.	=198.	=198.	=198.	=198.
1r	1r	0D	1d	2a/]
.	.	.	.	2a/
1F	1A	.	1f	2a/
.	.	.	.	2a/
=199	=199	=199	=199	=199
2C/	2c\	0E	1e	1g
2C/	2c\	.	.	.
1C	1c	.	2e\	2a/
.	.	.	[2e\	[2g/
=200.	=200.	=200.	=200.	=200.
1C	1c	0r	2e\]	2g/]
.	.	.	4d\	4f/
.	.	.	4c\	4e/
1r	1r	.	2d\	2f/
.	.	.	2e\	2g/
=201	=201	=201	=201	=201
2r	2r	0E	1c	1e
2C/	2c\	.	.	.
2C/	2c\	.	2r	2r
2C/	2c\	.	2e\	2g/
=202.	=202.	=202.	=202.	=202.
0C	2c\	1E	2e\	2a/
.	4B\	.	2e\	2g/
.	4A/	.	.	.
.	[1G	1E	2c\	2e/
.	.	.	[2e\	[2g/
=203	=203	=203	=203	=203
0GG	0G]	0D	2e\]	2g/]
.	.	.	4d\	4f/
.	.	.	4c\	4e/
.	.	.	2B\	2d/
.	.	.	2e\	4g/
.	.	.	.	4a/
=204.	=204.	=204.	=204.	=204.
1r	0r	0r	2d\	2b\
.	.	.	2c\	1cc
1G	.	.	1d	.
.	.	.	.	2b\
=205	=205	=205	=205	=205
2.A\	1r	0r	0c	0cc
4G\	.	.	.	.
2F\	2r	.	.	.
2E\	2G/	.	.	.
=206.	=206.	=206.	=206.	=206.
2D\	2A/	2r	0r	0r
2C/	1c	2E/	.	.
1D	.	1F	.	.
.	2B\	.	.	.
=207	=207	=207	=207	=207
1C	2A/	1E	0r	0r
.	2G/	.	.	.
2.AA/	2F/	2.C/	.	.
.	[2E/	.	.	.
4BB/	.	4D/	.	.
=208.	=208.	=208.	=208.	=208.
2C/	2E/]	2E/	0r	1r
2D\	1A	2F/	.	.
1BB	.	1D	.	1dd
.	2G#i/	.	.	.
=209	=209	=209	=209	=209
[0AA	[0A	0E	1e	2.cc\
.	.	.	.	4b\
.	.	.	2e\	2a/
.	.	.	2e\	4g/
.	.	.	.	4f/
=210.	=210.	=210.	=210.	=210.
0AA_	0A_	1E	2c\	2e/
.	.	.	2c\	2a/
.	.	1E	3c\	2a/
.	.	.	3d\	.
.	.	.	.	[2a/
.	.	.	3e\	.
=211	=211	=211	=211	=211
0AA]	0A]	2F/	2A/	2a/]
.	.	2D/	2.d\	4g/
.	.	.	.	4f/
.	.	1E	.	1e
.	.	.	4c#i\	.
.	.	.	2c#i\	.
=212.	=212.	=212.	=212.	=212.
2r	1r	0D	0d	0f
2D\	.	.	.	.
2.D\	2r	.	.	.
.	2A/	.	.	.
4E\	.	.	.	.
=213	=213	=213	=213	=213
4F\	2.A/	0r	0r	0r
4D\	.	.	.	.
1F	.	.	.	.
.	4B\	.	.	.
.	4c\	.	.	.
.	4A/	.	.	.
4E\	[2c\	.	.	.
4D\	.	.	.	.
=214.	=214.	=214.	=214.	=214.
2C/	2c\]	0r	0r	0r
1F	4B\	.	.	.
.	4A/	.	.	.
.	1G	.	.	.
2E\	.	.	.	.
=215	=215	=215	=215	=215
0F	2r	0r	0r	0r
.	2F/	.	.	.
.	2.A/	.	.	.
.	4B\	.	.	.
=216.	=216.	=216.	=216.	=216.
2r	4c\	0r	0r	0r
.	4A/	.	.	.
2FF/	1c	.	.	.
2.AA/	.	.	.	.
.	4B\	.	.	.
4BB/	4A/	.	.	.
=217	=217	=217	=217	=217
4C/	1G	0r	0r	0r
4BB/	.	.	.	.
1C	.	.	.	.
.	1c	.	.	.
4BB/	.	.	.	.
4AA/	.	.	.	.
=218.	=218.	=218.	=218.	=218.
2GG/	2B\	0r	0r	0r
1C	2G/	.	.	.
.	2A/	.	.	.
2BB/	[2G/	.	.	.
=219	=219	=219	=219	=219
2AA/	4G/]	0r	2r	1cc
.	4F/	.	.	.
2FF/	1F	.	2A/	.
1GG	.	.	2G/	2b\
.	2E/	.	2G/	2g/
=220.	=220.	=220.	=220.	=220.
0FF	0F	0r	2c\	2.a/
.	.	.	2c\	.
.	.	.	.	4b\
.	.	.	1A	4cc\
.	.	.	.	4b\
.	.	.	.	[2cc\
=221	=221	=221	=221	=221
0r	0r	0r	2.A/	2cc\]
.	.	.	.	4b\
.	.	.	4B\	4a/
.	.	.	4c\	1g
.	.	.	4B\	.
.	.	.	[2c\	.
=222.	=222.	=222.	=222.	=222.
0r	0r	0r	2c\]	1cc
.	.	.	4B\	.
.	.	.	4A/	.
.	.	.	2G/	2b\
.	.	.	2G/	2g/
=223	=223	=223	=223	=223
0r	0r	0r	1.c	2a/
.	.	.	.	4g/
.	.	.	.	4f/
.	.	.	.	2e/
.	.	.	4B-i\	[2g/
.	.	.	4A/	.
=224.	=224.	=224.	=224.	=224.
0r	1r	0r	4B-i\	4g/]
.	.	.	4A/	4f/
.	.	.	4G/	1f
.	.	.	4F/	.
.	1C	.	1G	.
.	.	.	.	2e/
=225	=225	=225	=225	=225
2r	2D/	0A	1F	0f
2FF/	1F	.	.	.
2FF/	.	.	2r	.
2FF/	4E/	.	2c\	.
.	4D/	.	.	.
=226.	=226.	=226.	=226.	=226.
0C	2E/	1G	2c\	2r
.	2C/	.	1c	2e/
.	1C	1G	.	2e/
.	.	.	4B\	2e/
.	.	.	4A/	.
=227	=227	=227	=227	=227
2r	1r	0G	0B	0g
2GG/	.	.	.	.
2GG/	2r	.	.	.
[2GG/	2D/	.	.	.
=228.	=228.	=228.	=228.	=228.
4GG/]	2D/	2r	2r	1r
4AA/	.	.	.	.
4BB/	2.D/	2D/	2d\	.
4C/	.	.	.	.
1D	.	2D/	2d\	2r
.	4E/	.	.	.
.	4F/	2D/	[2d\	2d/
.	4G/	.	.	.
=229	=229	=229	=229	=229
1D	1A	1F	2d\]	2d/
.	.	.	1f	2.d/
1BB	1B	1D	.	.
.	.	.	.	4e/
.	.	.	4e\	4f/
.	.	.	4d\	4g/
=230.	=230.	=230.	=230.	=230.
0AA	2c\	[0E	2c\	1a
.	1A	.	2c\	.
.	.	.	[1e	1cc
.	4G/	.	.	.
.	4F/	.	.	.
=231	=231	=231	=231	=231
0r	2G/	0E]	1e]	2b\
.	2A/	.	.	2.a/
.	1B	.	1e	.
.	.	.	.	4g#i/
.	.	.	.	2g#i/
=232.	=232.	=232.	=232.	=232.
2r	1A	0r	1c	0a
2AA/	.	.	.	.
2AA/	2r	.	1A	.
[2AA/	2E/	.	.	.
=233	=233	=233	=233	=233
4AA/]	2E/	0r	0r	1r
4BB/	.	.	.	.
4C/	2.E/	.	.	.
4D\	.	.	.	.
1E	.	.	.	2r
.	4F/	.	.	.
.	4G/	.	.	2cc\
.	4A/	.	.	.
=234.	=234.	=234.	=234.	=234.
2D\	2B\	1r	0r	2b\
2C/	1A	.	.	2cc\
1BB	.	1D	.	2.dd\
.	2G#i/	.	.	.
.	.	.	.	4b\
=235	=235	=235	=235	=235
[0AA	[0A	1E	1.e	1.cc
.	.	1E	.	.
.	.	.	2e\	[2a/
=236.	=236.	=236.	=236.	=236.
1AA]	0A]	2.C/	1e	2a/]
.	.	.	.	4g/
.	.	4D/	.	4f/
2r	.	2E/	2c\	2e/
[2D\	.	[2F/	4d\	2d/
.	.	.	4c\	.
=237	=237	=237	=237	=237
4D\]	0r	2F/]	4B\	4f/
4AA/	.	.	4A/	4e/
2C/	.	1E	1A	4d/
.	.	.	.	4c/
1BB	.	.	.	1d
.	.	2D/	2G#i/	.
=238.	=238.	=238.	=238.	=238.
0AA	0r	1E	0A	1c
.	.	2r	.	2r
.	.	2E/	.	2c/
=239	=239	=239	=239	=239
0r	0r	2F/	0r	2d/
.	.	2E/	.	2c/
.	.	2F/	.	2d/
.	.	2G/	.	2e/
=240.	=240.	=240.	=240.	=240.
1AA	2r	1E	2r	1c
.	2E/	.	2c\	.
2BB/	2D/	1r	2d\	1r
2AA/	2E/	.	2c\	.
=241	=241	=241	=241	=241
2BB/	2D/	1r	2d\	1r
2GG/	2G/	.	2B\	.
1AA	1E	2r	1c	2r
.	.	2E/	.	2c/
=242.	=242.	=242.	=242.	=242.
0r	0r	2F/	0r	2d/
.	.	2E/	.	2e/
.	.	2A/	.	2f/
.	.	4G/	.	4e/
.	.	4F/	.	4d/
=243	=243	=243	=243	=243
1AA	2r	1E	2r	1c
.	2A/	.	2c\	.
2BB/	2G/	2r	2d\	1r
2AA/	2A/	2E/	2c\	.
=244.	=244.	=244.	=244.	=244.
2D\	2F/	2F/	2d\	2r
4C/	4E/	2G/	2G/	2e/
4BB/	4D/	.	.	.
1AA	1C	1A	1c	2f/
.	.	.	.	2e/
=245	=245	=245	=245	=245
2r	2r	1E	2r	2b\
2AA/	2A/	.	2c\	2cc\
2BB/	2G/	2r	2d\	2b\
2C/	2A/	2E/	2c\	[2a/
=246.	=246.	=246.	=246.	=246.
1D	2.F/	2F/	2.f\	4a/]
.	.	.	.	4g/
.	.	2D/	.	2f/
.	4G/	.	4e\	.
1AA	[1A	2E/	2c\	2e/
.	.	2F/	[2d\	2d/
=247	=247	=247	=247	=247
2r	1A]	1E	4d\]	1a
.	.	.	4c\	.
2AA/	.	.	2c\	.
2D\	2F/	1D	2d\	2a/
2GG/	2G/	.	2B\	2g/
=248.	=248.	=248.	=248.	=248.
2AA/	0C	0A	2c\	2e/
2.FF/	.	.	2A/	2.a/
.	.	.	4A/	.
4GG/	.	.	4B\	4g/
2AA/	.	.	2c\	4f/
.	.	.	.	4e/
=249	=249	=249	=249	=249
1BB-	0r	1F	1d	1d
1GG	.	1G	1B-i	2d/
.	.	.	.	[2e/
=250.	=250.	=250.	=250.	=250.
0AA	1r	2.E/	0A	4e/]
.	.	.	.	4d/
.	.	.	.	1d
.	.	4D/	.	.
.	1E	1E	.	.
.	.	.	.	2c#i/
=251	=251	=251	=251	=251
2r	1F	[0Dl	1r	[0dl
1D	.	.	.	.
.	1F	.	1A	.
2C/	.	.	.	.
=252.	=252.	=252.	=252.	=252.
2BB-i/	0G	0D_	0B-i	0d_
2AA/	.	.	.	.
1GG	.	.	.	.
=253	=253	=253	=253	=253
0DDl	0Fl	0D]	0Al	0d]
==	==	==	==	==
*-	*-	*-	*-	*-
!!!RDF**kern: l=long note in original notation
!!!RDF**kern: i=editorial accidental
!!!ENC:	Chris Gage 05-23-2013
!!!END:	2013/08/03/
!!!EED:	Jesse Rodin
!!!EEV:	2013/12/30/
!!!ONB:	Translated from MusicXML and edited on 2013/12/30/ by Craig Sapp
!!muse2ps: T^@{OPR}^u^@{ONM}{. }@{OTL}^C^@{COM}^i2I150v85,85,85,85,130Q16
